X: 4
T: Dolly's the Girl for Me
M: 9/8
L: 1/8
R: slip jig
K: D Major
|: D |
FAF ded c2 A | B/c/dB AFD E2 G |
F/G/AF ded cAA | Bgf e>dc d2 :|
|: g |
f2 d f/g/ag fed | c2 A c/d/ec Acg | 
fdd f>ag fed | Bgf e>dc d2 :|
